X: 129
T:The Bridal Jig
M:6/8
L:1/8
Z:abc by Bruce Osborne - bosborne@kos.net
K:G
D|G2 G BGB|def gfg|ecA dBG|FAG FED|!
G2 G BGB|def gfg|ecA dBG|cAF G2:|!
|:G|Bee edB|def g2 a|bag agf|e2 e edB|!
Bee edB|def g2 a|bag agf|e3 e2:|!
